!!!OTL: ES WOLLT EIN SCHNEIDER WANDERN
!!!ARE: Europa, Mitteleuropa, Deutschland, Hessen, Darmstadt
!!!SCT: E1632
!!!YEM: Copyright 1995, estate of Helmut Schaffrath.
**kern
*ICvox
*Ivox
*M4/4
*k[f#]
*G:
{4d
=1
4.g
8d
4B
4d
=2
4g
4b
4b}
{4dd
=3
4.a
8g
4f#
4g
=4
2a
4r}
{8g
8a
=5
4b
4b
8b
8b
8dd
8dd
=6
4cc
4a
4a}
{8a
8b
=7
8cc
8cc
8cc
8cc
8cc
8cc
8ee
8ee
=8
4dd
4b
4b}
{4dd
=9
4ee
4cc
4cc
4ee
=10
2dd}
{2b
=11
4cc
4cc
4dd
8dd
8cc
=12
2b
4r}
==
!!!AGN: Staende -, Handwerker - Lied, Schneider; Wanderschaft
!!!ONB: ESAC (Essen Associative Code) Database: ERK3
!!!AMT: simple quadruple
!!!AIN: vox
!!!EED: Helmut Schaffrath
!!!EEV: 1.0
*-
